IMB-X-Files/The-Ambassadors-Assets/6616e2ee75db4bf4519944f6_rf-logo.svg

<svg fill="none" height="53" viewBox="0 0 242 53" width="242" xmlns="http://www.w3.org/2000/svg"><g fill="#fff"><g clip-rule="evenodd" fill-rule="evenodd"><path d="m90.3705 23.7675c.9848.1168 1.8064.2142 1.814.7315.015 1.084-1.2456 2.1121-3.0152 2.778-4.8871 1.8383-6.6615 2.5312-6.803 5.8722-.013.3074-.017.6379-.0209.9673-.0134 1.1207-.0267 2.2281-.3947 2.3666-.4747.1781-1.9826-1.0305-2.2876-3.006-.4676-3.0242.9408-6.8921 5.7177-7.982-2.3792-1.3225-3.2476-3.5897-3.8043-5.3362-.68.6055-2.1132 1.8436-2.9782 2.5071-.2545.9157-.5958 1.8982-.948 2.912-.8084 2.3276-1.6743 4.8205-1.6799 7.0502-.0101 3.8249 3.482 6.9965 5.5829 8.1482.3774.2066.3178.7774-.0744.9532-.9708.435-2.4703.8397-4.5483.9647-7.453.4496-13.7265-3.311-15.213-11.2081-1.2535-6.7207 1.904-11.6929 7.1461-16.3739 2.0199-1.804 3.3658-3.6481 4.2208-5.0775.1534-.25685.5186-.27568.7516-.09026 1.8363 1.46456 4.2074 5.06496 4.6264 8.23506.6309-.5278 2.2442-1.8775 3.3-2.877.9026-.8547 1.596-.5008 1.8367.4635 1.1358 4.5506 2.537 7.195 5.4924 7.8116.4229.0883.8653.1408 1.2789.1898zm-20.3848-4.5333c-3.4635 3.0059-4.6112 6.1354-4.6269 9.9052-.0267 6.3518 5.3899 10.0749 9.1426 10.0749-2.7228-2.7394-2.83-7.6575-2.0193-10.8141.1826-.7108.5025-1.5174.8508-2.3955 1.1989-3.0223 2.7338-6.8918.162-10.6167-.6382 1.0319-2.1834 2.6955-3.5092 3.8462z"/><path d="m96.7911 18.7194h6.2699c1.389 0 2.532.1633 3.433.4897.9.3259 1.607.7533 2.119 1.2806.512.5272.867 1.1135 1.065 1.7577.199.6441.298 1.2767.298 1.8953 0 1.1555-.207 2.1266-.619 2.9131-.414.7867-1.108 1.4482-2.083 1.9837l3.594 7.6083h-3.99l-2.974-6.7294h-3.469v6.7294h-3.6439zm6.5189 8.0854c.578 0 1.057-.0628 1.437-.1889.38-.125.681-.3013.905-.5267.223-.2261.375-.4984.458-.8161.082-.3177.124-.6698.124-1.0546 0-.3183-.05-.6234-.149-.9165-.099-.2926-.268-.5524-.508-.7784s-.57-.4018-.991-.5273-.954-.1888-1.599-.1888h-2.552v4.9973z"/><path d="m123.708 32.5547c-.232 1.4733-.814 2.5907-1.748 3.3521-.933.7616-2.292 1.1426-4.076 1.1426-2.149 0-3.763-.6027-4.846-1.808-1.082-1.2052-1.623-2.9127-1.623-5.1223 0-1.1049.157-2.088.471-2.9504.314-.8619.756-1.5944 1.326-2.1971.57-.6026 1.251-1.0584 2.045-1.3685.793-.3095 1.668-.4645 2.627-.4645 1.982 0 3.473.5776 4.473 1.7326s1.5 2.7113 1.5 4.6704v1.4061h-8.972c.033 1.0547.297 1.8793.793 2.4733.495.5944 1.239.8914 2.23.8914 1.371 0 2.181-.5857 2.429-1.7577zm-3.197-3.9171c0-.9039-.22-1.607-.657-2.1092-.438-.5022-1.12-.7533-2.045-.7533-.463 0-.867.0754-1.214.226-.347.1507-.641.3554-.88.6147-.239.2603-.426.5616-.557.9045-.133.3428-.208.7156-.224 1.1173z"/><path d="m130.014 38.2798c-.124-.2009-.22-.4689-.285-.8036h-3.52c.083.7195.252 1.3512.508 1.8953.256.5442.624.9962 1.103 1.3564.479.3598 1.086.6278 1.821.8036.736.1753 1.624.2636 2.665.2636 1.123 0 2.078-.155 2.862-.4645.785-.3105 1.421-.7659 1.909-1.3685.487-.6027.842-1.3357 1.066-2.1971.223-.8624.334-1.8455.334-2.9504v-11.2742h-3.37v1.4815c-.546-.72-1.145-1.2135-1.797-1.4815-.653-.2676-1.326-.4018-2.021-.4018-.875 0-1.664.1632-2.366.4897-.702.3263-1.293.7783-1.772 1.3558s-.847 1.2676-1.103 2.0717c-.256.8034-.384 1.6823-.384 2.6365 0 2.0087.45 3.6076 1.351 4.7959.9 1.1888 2.259 1.7827 4.076 1.7827.843 0 1.599-.1631 2.268-.4896.67-.3264 1.219-.8074 1.648-1.4437v.4017c0 .5524-.021 1.0884-.062 1.607-.041.5187-.148.9793-.322 1.381-.173.4018-.442.7239-.805.9667-.364.2425-.868.3641-1.512.3641-.413 0-.764-.0212-1.053-.0627-.29-.042-.537-.1217-.744-.2386-.207-.1173-.372-.2762-.495-.477zm4.758-10.5461c.174.4857.26 1.1217.26 1.9083v.3515c0 .6365-.074 1.1764-.223 1.6196-.149.4438-.355.8035-.62 1.0793-.264.2767-.582.4775-.954.6026-.371.126-.772.1888-1.202.1888-.776 0-1.425-.2893-1.945-.8663-.52-.5775-.781-1.5607-.781-2.9503 0-.653.075-1.2135.223-1.6829.149-.4679.351-.8533.607-1.1546s.554-.5185.893-.6528c.339-.1338.697-.2009 1.078-.2009.347 0 .694.042 1.041.1255.347.084.66.255.941.5143.281.2598.509.6326.682 1.1179z"/></g><path d="m141.972 18.7194h11.624v3.2141h-7.931v4.2185h7.459v3.214h-7.459v7.2818h-3.693z"/><path clip-rule="evenodd" d="m156.594 35.241c1.14 1.2052 2.751 1.8079 4.833 1.8079.991 0 1.891-.1593 2.701-.4771.81-.3177 1.5-.7779 2.069-1.3805.57-.6027 1.008-1.3352 1.315-2.1976.305-.8615.458-1.8369.458-2.9253 0-1.0711-.149-2.0377-.447-2.9001-.297-.8621-.731-1.5902-1.3-2.1846-.571-.5939-1.261-1.0503-2.07-1.3685-.81-.3177-1.719-.4766-2.726-.4766-.991 0-1.892.1589-2.702.4766-.809.3182-1.499.7746-2.069 1.3685-.57.5944-1.008 1.3225-1.313 2.1846-.306.8624-.459 1.829-.459 2.9001 0 2.2435.57 3.9673 1.71 5.1726zm7.051-2.0836c-.488.7195-1.227 1.0792-2.218 1.0792-1.008 0-1.752-.3554-2.231-1.0672-.479-.7113-.718-1.7451-.718-3.101 0-1.3391.243-2.3604.731-3.0634.487-.7031 1.227-1.0546 2.218-1.0546s1.73.3515 2.218 1.0546c.487.703.731 1.7243.731 3.0634 0 1.3395-.244 2.369-.731 3.089z" fill-rule="evenodd"/><path d="m172.728 29.9178-4.239-6.3778h4.09l2.206 3.7408 2.478-3.7408h3.619l-4.189 6.1769 4.511 6.9304h-4.015l-2.627-4.2687-2.752 4.2687h-3.766z"/></g></svg>

<svg width="242" height="53" viewBox="0 0 242 53" fill="none" xmlns="http://www.w3.org/2000/svg">
<path fill-rule="evenodd" clip-rule="evenodd" d="M90.3705 23.7675C91.3553 23.8843 92.1769 23.9817 92.1845 24.499C92.1995 25.583 90.9389 26.6111 89.1693 27.277C84.2822 29.1153 82.5078 29.8082 82.3663 33.1492C82.3533 33.4566 82.3493 33.7871 82.3454 34.1165C82.332 35.2372 82.3187 36.3446 81.9507 36.4831C81.476 36.6612 79.9681 35.4526 79.6631 33.4771C79.1955 30.4529 80.6039 26.585 85.3808 25.4951C83.0016 24.1726 82.1332 21.9054 81.5765 20.1589C80.8965 20.7644 79.4633 22.0025 78.5983 22.666C78.3438 23.5817 78.0025 24.5642 77.6503 25.578C76.8419 27.9056 75.976 30.3985 75.9704 32.6282C75.9603 36.4531 79.4524 39.6247 81.5533 40.7764C81.9307 40.983 81.8711 41.5538 81.4789 41.7296C80.5081 42.1646 79.0086 42.5693 76.9306 42.6943C69.4776 43.1439 63.2041 39.3833 61.7176 31.4862C60.4641 24.7655 63.6216 19.7933 68.8637 15.1123C70.8836 13.3083 72.2295 11.4642 73.0845 10.0348C73.2379 9.77795 73.6031 9.75912 73.8361 9.94454C75.6724 11.4091 78.0435 15.0095 78.4625 18.1796C79.0934 17.6518 80.7067 16.3021 81.7625 15.3026C82.6651 14.4479 83.3585 14.8018 83.5992 15.7661C84.735 20.3167 86.1362 22.9611 89.0916 23.5777C89.5145 23.666 89.9569 23.7185 90.3705 23.7675ZM69.9857 19.2342C66.5222 22.2401 65.3745 25.3696 65.3588 29.1394C65.3321 35.4912 70.7487 39.2143 74.5014 39.2143C71.7786 36.4749 71.6714 31.5568 72.4821 28.4002C72.6647 27.6894 72.9846 26.8828 73.3329 26.0047C74.5318 22.9824 76.0667 19.1129 73.4949 15.388C72.8567 16.4199 71.3115 18.0835 69.9857 19.2342Z" fill="white"/>
<path fill-rule="evenodd" clip-rule="evenodd" d="M96.7911 18.7194H103.061C104.45 18.7194 105.593 18.8827 106.494 19.2091C107.394 19.535 108.101 19.9624 108.613 20.4897C109.125 21.0169 109.48 21.6032 109.678 22.2474C109.877 22.8915 109.976 23.5241 109.976 24.1427C109.976 25.2982 109.769 26.2693 109.357 27.0558C108.943 27.8425 108.249 28.504 107.274 29.0395L110.868 36.6478H106.878L103.904 29.9184H100.435V36.6478H96.7911V18.7194ZM103.31 26.8048C103.888 26.8048 104.367 26.742 104.747 26.6159C105.127 26.4909 105.428 26.3146 105.652 26.0892C105.875 25.8631 106.027 25.5908 106.11 25.2731C106.192 24.9554 106.234 24.6033 106.234 24.2185C106.234 23.9002 106.184 23.5951 106.085 23.302C105.986 23.0094 105.817 22.7496 105.577 22.5236C105.337 22.2976 105.007 22.1218 104.586 21.9963C104.165 21.8708 103.632 21.8075 102.987 21.8075H100.435V26.8048H103.31Z" fill="white"/>
<path fill-rule="evenodd" clip-rule="evenodd" d="M123.708 32.5547C123.476 34.028 122.894 35.1454 121.96 35.9068C121.027 36.6684 119.668 37.0494 117.884 37.0494C115.735 37.0494 114.121 36.4467 113.038 35.2414C111.956 34.0362 111.415 32.3287 111.415 30.1191C111.415 29.0142 111.572 28.0311 111.886 27.1687C112.2 26.3068 112.642 25.5743 113.212 24.9716C113.782 24.369 114.463 23.9132 115.257 23.6031C116.05 23.2936 116.925 23.1386 117.884 23.1386C119.866 23.1386 121.357 23.7162 122.357 24.8712C123.357 26.0262 123.857 27.5825 123.857 29.5416V30.9477H114.885C114.918 32.0024 115.182 32.827 115.678 33.421C116.173 34.0154 116.917 34.3124 117.908 34.3124C119.279 34.3124 120.089 33.7267 120.337 32.5547H123.708ZM120.511 28.6376C120.511 27.7337 120.291 27.0306 119.854 26.5284C119.416 26.0262 118.734 25.7751 117.809 25.7751C117.346 25.7751 116.942 25.8505 116.595 26.0011C116.248 26.1518 115.954 26.3565 115.715 26.6158C115.476 26.8761 115.289 27.1774 115.158 27.5203C115.025 27.8631 114.95 28.2359 114.934 28.6376H120.511Z" fill="white"/>
<path fill-rule="evenodd" clip-rule="evenodd" d="M130.014 38.2798C129.89 38.0789 129.794 37.8109 129.729 37.4762H126.209C126.292 38.1957 126.461 38.8274 126.717 39.3715C126.973 39.9157 127.341 40.3677 127.82 40.7279C128.299 41.0877 128.906 41.3557 129.641 41.5315C130.377 41.7068 131.265 41.7951 132.306 41.7951C133.429 41.7951 134.384 41.6401 135.168 41.3306C135.953 41.0201 136.589 40.5647 137.077 39.9621C137.564 39.3594 137.919 38.6264 138.143 37.765C138.366 36.9026 138.477 35.9195 138.477 34.8146V23.5404H135.107V25.0219C134.561 24.3019 133.962 23.8084 133.31 23.5404C132.657 23.2728 131.984 23.1386 131.289 23.1386C130.414 23.1386 129.625 23.3018 128.923 23.6283C128.221 23.9546 127.63 24.4066 127.151 24.9841C126.672 25.5616 126.304 26.2517 126.048 27.0558C125.792 27.8592 125.664 28.7381 125.664 29.6923C125.664 31.701 126.114 33.2999 127.015 34.4882C127.915 35.677 129.274 36.2709 131.091 36.2709C131.934 36.2709 132.69 36.1078 133.359 35.7813C134.029 35.4549 134.578 34.9739 135.007 34.3376V34.7393C135.007 35.2917 134.986 35.8277 134.945 36.3463C134.904 36.865 134.797 37.3256 134.623 37.7273C134.45 38.1291 134.181 38.4512 133.818 38.694C133.454 38.9365 132.95 39.0581 132.306 39.0581C131.893 39.0581 131.542 39.0369 131.253 38.9954C130.963 38.9534 130.716 38.8737 130.509 38.7568C130.302 38.6395 130.137 38.4806 130.014 38.2798ZM134.772 27.7337C134.946 28.2194 135.032 28.8554 135.032 29.642V29.9935C135.032 30.63 134.958 31.1699 134.809 31.6131C134.66 32.0569 134.454 32.4166 134.189 32.6924C133.925 32.9691 133.607 33.1699 133.235 33.295C132.864 33.421 132.463 33.4838 132.033 33.4838C131.257 33.4838 130.608 33.1945 130.088 32.6175C129.568 32.04 129.307 31.0568 129.307 29.6672C129.307 29.0142 129.382 28.4537 129.53 27.9843C129.679 27.5164 129.881 27.131 130.137 26.8297C130.393 26.5284 130.691 26.3112 131.03 26.1769C131.369 26.0431 131.727 25.976 132.108 25.976C132.455 25.976 132.802 26.018 133.149 26.1015C133.496 26.1855 133.809 26.3565 134.09 26.6158C134.371 26.8756 134.599 27.2484 134.772 27.7337Z" fill="white"/>
<path d="M141.972 18.7194H153.596V21.9335H145.665V26.152H153.124V29.366H145.665V36.6478H141.972V18.7194Z" fill="white"/>
<path fill-rule="evenodd" clip-rule="evenodd" d="M156.594 35.241C157.734 36.4462 159.345 37.0489 161.427 37.0489C162.418 37.0489 163.318 36.8896 164.128 36.5718C164.938 36.2541 165.628 35.7939 166.197 35.1913C166.767 34.5886 167.205 33.8561 167.512 32.9937C167.817 32.1322 167.97 31.1568 167.97 30.0684C167.97 28.9973 167.821 28.0307 167.523 27.1683C167.226 26.3062 166.792 25.5781 166.223 24.9837C165.652 24.3898 164.962 23.9334 164.153 23.6152C163.343 23.2975 162.434 23.1386 161.427 23.1386C160.436 23.1386 159.535 23.2975 158.725 23.6152C157.916 23.9334 157.226 24.3898 156.656 24.9837C156.086 25.5781 155.648 26.3062 155.343 27.1683C155.037 28.0307 154.884 28.9973 154.884 30.0684C154.884 32.3119 155.454 34.0357 156.594 35.241ZM163.645 33.1574C163.157 33.8769 162.418 34.2366 161.427 34.2366C160.419 34.2366 159.675 33.8812 159.196 33.1694C158.717 32.4581 158.478 31.4243 158.478 30.0684C158.478 28.7293 158.721 27.708 159.209 27.005C159.696 26.3019 160.436 25.9504 161.427 25.9504C162.418 25.9504 163.157 26.3019 163.645 27.005C164.132 27.708 164.376 28.7293 164.376 30.0684C164.376 31.4079 164.132 32.4374 163.645 33.1574Z" fill="white"/>
<path d="M172.728 29.9178L168.489 23.54H172.579L174.785 27.2808L177.263 23.54H180.882L176.693 29.7169L181.204 36.6473H177.189L174.562 32.3786L171.81 36.6473H168.044L172.728 29.9178Z" fill="white"/>
</svg>
